X:1
T:Title
%%score { ( 1 3 ) | ( 2 4 ) }
L:1/8
M:6/8
K:Ab
V:1 bass nm="Grand Piano"
V:3 bass 
V:2 bass 
V:4 bass 
V:1
 z3 z2[Q:1/4=72] E | .[E,CE]3[K:treble] ABA | AGA BGE | Ecc c_c=d | [Ee]3- [Ee]2 [Ee] | edc cBc | %6
 dcB BAB | cEE FBG |[M:5/8] [CA]-[CA]- [CA]3 |] %9
V:2
 z3 z2 E, | z[K:treble] FG[K:bass] [C,E,]3 | E,2 F, [E,D]-[E,-B,D-][E,G,D] | z3[K:treble] .=D3 | %4
 [C,C]3- [C,C]2 [C,G,] | C,2- [C,=A,] A,B,_A, | [E,E]-[E,A,E][=E,G,D] [E,G,D][F,A,C][F,A,=D] | %7
 [A,E]C[E,C] [E,B,D]2 [E,B,D] |[M:5/8] [A,,A,]-[A,,A,]- [A,,A,]3 |] %9
V:3
 x6 | z3[K:treble] E3 | D3 z3 | .[A,C]3 z3 | x6 | E3 F3 | x6 | x6 |[M:5/8] x5 |] %9
V:4
 x6 | A,,3[K:treble][K:bass] z3 | B,,3 .G,3 | A,,2[K:treble] [A,C] [G,F]2- [G,_CF] | x6 | %5
 .A,3 D,3 | .G,3 z3 | .E,3 z3 |[M:5/8] x5 |] %9

